!!!OTL: 86. Freylekhs
!!!Genre:	Freylekhs
!!!Mode:	Freygish
!!!Listening/dance:	dance
!!!One_Mode:	yes
**kern
*part1
*staff1
*clefG2
*G:frey:
*M2/4
*>norep[A,B,C]
*>A
=1-
(>16gLL
16bn)
(>16b
16ddJJ)
(>16ddLL
16cc)
(>16cc
16ddJJ)
=2
(>16ddLL
16bn)
(>16b
16ccJJ)
(>16ccLL
16a-)
(>16a-
16ccJJ)
=3
8.bnL
16a-Jk
16gLL
16f
16g
16a-JJ
=4
8.bnL
16gJk
8.bL
16gJk
=5
(>16gLL
16bn)
(>16b
16ddJJ)
(>16ddLL
16cc)
(>16cc
16ddJJ)
=6
(>16ddLL
16bn)
(>16b
16ccJJ)
(>16ccLL
16a-)
(>16a-
16ccJJ)
=7
8.bnL
16a-Jk
16gLL
16f
16g
16a-JJ
=8
4g
4gg
=9:|!
*>B
8ffL
(>16aa-'L
16gg'JJ
16ff'LL
16ee-'
16dd'
16cc'JJ)
=10
16ddLL
16ee-
16ff
16ee-JJ
8.ddL
16ccJk
=11
16bnLL
16cc
16dd
16ee-JJ
16ddLL
16cc
16b
16a-JJ
=12
(>16bnLL
16cc)
(>16a-
16bJJ)
16gLL
16a-J
8fJ
=13
8ffL
(>16aa-'L
16gg'JJ
16ff'LL
16ee-'
16dd'
16cc'JJ)
=14
16ddLL
16ee-
16ff
16ee-JJ
8.ddL
16ccJk
=15
16bnLL
16cc
16dd
16ee-JJ
16ddLL
16cc
16b
16a-JJ
=16
(<16a-LL
16gJJ)
4.g
=17!|:
*>C
8.fL
16cJk
8.fL
16cJk
=18
16fLL
16c
16f
16cJJ
4f
=19
16gLL
16a-
16g
16a-JJ
16bnLL
16cc
16b
16a-JJ
=20
16a-LL
16ccJ
[8bnJ
16bLL]
16a-
16g
16fJJ
=21
8.fL
16cJk
8.fL
16cJk
=22
16fLL
16c
16f
16cJJ
4f
=23
16gLL
16a-
16g
16a-JJ
16bnLL
16cc
16b
16a-JJ
=24
(<16a-LL
16gJJ)
4.g
=:|!
*-
